X: 15747
T: Gone Mad In Guadeloupe
R: reel
M: 4/4
K: Gmajor
DB,DG BAGF|E2Cc- cBAG|FGAB cABc|e2Bd- d4|
DB,DG BAGF|E2Cc- cBAG|FGAB cAFA|1 G4-G4:|2 G4- GE||
|:eB-BB- BEGB|eB-BB- B2B2|BcBA GAGF|EG-GB- BEGB|
eB-BB- B2B2|eB-BB-B2B2|BcBA GAGF|1 E4-EEGB:|2 E2-ED-D4||

